X:231
T:The North 
R:reel
C:Bruce Osborne - Sept. 2002
Z:abc by bosborne@kos.net
M:2/4
L:1/8
K:Bb
F/E/|D/B,/B, F/B,/D/F/|E/G/B/G/ c/G/B/G/|F/A/c/A/ e/c/A/c/|B/A/B/G/ FF/E/|\
D/B,/B, F/B,/D/F/|E/G/B/G/ c/G/B/G/|F/A/c/A/ e/c/A/c/|B/A/B/c/ B:|
|:d/c/|B/F/D/F/ B,/F/D/F/|E/B/G/B/ E/B/G/B/|F/c/A/c/ F/c/A/c/|B/A/B/G/ Fd/c/|\
B/F/D/F/ B,/F/D/F/|E/B/G/B/ E/B/G/B/|F/c/A/c/ e/c/A/c/|B/A/B/c/ B:|
